X:1
T:Title
%%score { ( 1 3 ) | ( 2 4 ) }
L:1/8
M:4/4
K:F
V:1 treble nm="Grand Piano"
V:3 treble 
V:2 bass 
V:4 bass 
V:1
 z4 z2[Q:1/4=69] A2 | c3 c dc[CF][CEG] | A6 A2 | B3 B [Be][Bd][EGc][CEG] |[M:3/4] A6 |[M:1/4] A2 | %6
[M:4/4] c3 c dc[CF][CEG] | [CFA]6 [CFA]2 | [DFG]3 [Fd] [Fc][FA] [EG]>F |[M:3/4] F6 |[M:1/4] c2 | %11
[M:4/4] [Fd]3 [Fd] dB f>d | c6 z2 | G3 G ed=BG |[M:3/4] c6 |[M:1/4] [CEB]2 |[M:4/4] A3 B cABc | %17
 [Fd]6[K:bass][K:treble] z2 | .F2 .F2 z4 |[M:3/4] [A,CF]6 |] %20
V:2
 z4 z2 [F,CF]2 | [F,A,F]3 [F,A,F] [F,B,F][F,A,F]A,,C, | [F,CF]6 [F,CF]2 | %3
 [G,CE]3 [G,CE] [C,C][C,C]C,C, |[M:3/4] [F,CF]6 |[M:1/4] [F,CF]2 | %6
[M:4/4] [F,A,F]3 [F,A,F] [F,B,F][F,A,F]A,,C, | F,6 F,2 | B,,3 [=B,,G,] [C,A,][C,C] [C,B,]>[F,A,C] | %9
[M:3/4] [F,A,C]6 |[M:1/4] [F,A,F]2 |[M:4/4] [B,,B,]3 [B,,B,][K:treble] [B,F][B,DF] [B,DF]>[B,F] | %12
 [A,CF]2[K:bass] [G,B,]2 [F,A,]2[K:treble] [F,CF]2 | [G,=B,F]3 [G,B,F] [G,B,F]2 [G,DF]2 | %14
[M:3/4][K:bass] z G, _A,=A, B,2 |[M:1/4] C,2 | %16
[M:4/4][K:treble] [F,CF]3 [F,G,F] [F,A,F][F,CF][G,CE][A,CF] | B,4- B,DDB,, | C,C,A,-[C,A,] C,3 C, | %19
[M:3/4] F,6 |] %20
V:3
 x8 | x8 | x8 | x8 |[M:3/4] x6 |[M:1/4] x2 |[M:4/4] x8 | x8 | x8 |[M:3/4] x6 |[M:1/4] x2 | %11
[M:4/4] x8 | z2 E2 F2 A2 | x8 |[M:3/4] .[CE]2 F^F G2 |[M:1/4] x2 |[M:4/4] x8 | %17
 z[K:bass] B,,D,F, G,[K:treble]FF[^CFG] | [CA]-[CFA]c-[Fc] [CEA]3 [B,CG] |[M:3/4] x6 |] %20
V:4
 x8 | x8 | x8 | x8 |[M:3/4] x6 |[M:1/4] x2 |[M:4/4] x8 | x8 | x8 |[M:3/4] x6 |[M:1/4] x2 | %11
[M:4/4] x4[K:treble] x4 | x2[K:bass] x4[K:treble] x2 | x8 |[M:3/4][K:bass] D,6 |[M:1/4] x2 | %16
[M:4/4][K:treble] x8 | .B,,2 z2 z4 | z2 .C,2 z4 |[M:3/4] x6 |] %20

